!!!!SEGMENT: pl-sa--197-a-vi-1--002_anonim--requiem-es-kirie.krn
!!!cenid: 17xx:1673
!!!COM: Anonim
!!!COM-rismID: pe30004985
!!!CDT:
!!!CNT:
!!!OPR: Requiem Es
!!!OTL: Kirie
!!!OMV: 002
!!!PDT:
!!!AGN: Sacred; Requiem
!!!SMS-siglum: PL-SA
!!!SMS-shelfmark: 197/A VI 1
!!!SMS-shelfwork: 001-002 M
!!!SMS-variant:
!!!SMS-altvar:
!!!NIFC-rismSourceID: 1001070179
!!!NIFC-islandoraID:
!!!URL-pdf-islandora:
!!!URL-scan: https://bc.bdsandomierz.pl/dlibra/publication/1533/edition/1501/content @EN{Scan in the Sandomierz Diocese Digital Library} @PL{Skany w portalu Cyfrowa Biblioteka Diecezjalna w Sandomierzu}
!!!ONB-nifc: UWAGA: części Requiem: 1. Requiem, 2. Kirie, 3. Dies irae, 4. Domine Jesu Christe, 5. Sanctus, 6. Osanna, 7. Benedictus, 8. Agnus Dei, 9. Lux aeterna
!!!AIN: 1 alto 1 bass 1 soprn
!!!key: E-
**kern	**text	**kern	**text	**kern	**text
*part3	*part3	*part2	*part2	*part1	*part1
*staff3	*staff3	*staff2	*staff2	*staff1	*staff1
*I"Baſſo	*	*I"Alto	*	*I"Canto÷.	*
*I'B	*	*I'A	*	*I'C	*
*Ibass	*	*Ialto	*	*Isoprn	*
*ICvox	*	*ICvox	*	*ICvox	*
*clefF4	*	*clefC3	*	*clefC1	*
*k[b-e-a-]	*	*k[e-b-a-]	*	*k[b-a-e-]	*
*E-:	*	*E-:	*	*E-:	*
*M2/2	*	*M2/2	*	*M2/2	*
*met(c|)	*	*met(c|)	*	*met(c|)	*
*all\right	*	*all\right	*	*all\right	*
*2\right	*	*2\right	*	*2\right	*
=1	=1	=1	=1	=1	=1
!	!	!LO:TX:t=P:problem=oznaczenie metryczne obrócone alla breve	!	!LO:TX:t=P:problem=kolejność znaków b- a- e-	!
!	!	!LO:TX:t=P:problem=kolejność znaków e- B- A-	!	!LO:TX:t=P:problem=oznaczenie metryczne obrócone C z kropką	!
!LO:TX:t=P:problem=przy kluczu AA- BB- E- A- B-	!	!	!	!	!
!LO:TX:t=P:problem=oznaczenie metryczne obrócone alla breve	!	!	!	!LO:TX:a:t=Solo	!
1r	.	2.f\	Ki-	4b-\	Ki-
.	.	.	.	4cc\	.
.	.	.	.	(4dd\	-ri-
.	.	4f\	-ri-	4b-\)	-e
=2	=2	=2	=2	=2	=2
1r	.	2g\	-e	2ee-\	e-
.	.	2g\	e-	[2ee-\	.
!	!	!	!	!LO:LB:g=original	!
=3	=3	=3	=3	=3	=3
1r	.	1f	-lei-	2ee-\]	-ley-
.	.	.	.	2dd\	.
=4	=4	=4	=4	=4	=4
1r	.	2.g\	-ſon	1ee-	.
.	.	4f\	e-	.	.
=5	=5	=5	=5	=5	=5
1r	.	2f\	-lei-	2dd\	-ſon
.	.	2f\	-ſon	2dd\	e-
=6	=6	=6	=6	=6	=6
!	!	!	!	!	!
2.F\	Ki-	2.f\	Ki-	4cc\	-ley-
.	.	.	.	4an\	.
.	.	.	.	4b-\	.
4F\	-ri-	4f\	-ri-	4cc\	.
=7	=7	=7	=7	=7	=7
2D\	-e	1f	-e	4dd\	.
.	.	.	.	4cc\	.
2G\	e-	.	.	4dd\	.
.	.	.	.	4b-\	.
=8	=8	=8	=8	=8	=8
2C/	-lei-	1e-	e-	4cc\	.
.	.	.	.	4b-\	.
2F\	.	.	.	4cc\	.
.	.	.	.	4an\	.
=9	=9	=9	=9	=9	=9
4BB-/	-ſon	4f\	.	4b-\	.
4BB-/	e-	4d\	.	4dd\	.
4C/	.	4e-\	-lei-	4cc\	.
4D/	.	4f\	.	4b-\	.
=10	=10	=10	=10	=10	=10
4E-\	.	2g\	-ſon	2b-\	-ſon
4F\	-lei-	.	.	.	.
4G\	.	2g\	e-	2r	.
4E-\	.	.	.	.	.
=11	=11	=11	=11	=11	=11
4D/	.	1f	-lei-	2.b-\	Ki-
4BB-/	.	.	.	.	.
4C/	.	.	.	.	.
4D/	.	.	.	4b-\	-ri-
=12	=12	=12	=12	=12	=12
2E-\	-ſon	2g\	-ſon	2g\	-e
2E-\	e-	2g\	e-	2cc\	e-
=13	=13	=13	=13	=13	=13
(2E-\	-lei-	4a-\	-lei-	2f/	-ley-
.	.	4g\	.	.	.
2D/)	.	4a-\	.	2b-\	-son
.	.	4f\	.	.	.
=14	=14	=14	=14	=14	=14
2E-\	-ſon	4g\	.	4e-/	Ki-
.	.	4f\	.	4f/	-ri-
!	!	!	!	!LO:LB:g=original	!
2C/	e-	4e-\	.	4g/	-e
.	.	4f\	.	4a-\	e-
!LO:LB:g=original	!	!	!	!	!
=15	=15	=15	=15	=15	=15
2BB-/	-lei-	2d\	-ſon	(4b-\	.
.	.	.	.	4cc\)	.
2BB-/	-ſon	2rA	.	4dd\	.
.	.	.	.	4b-\	.
!	!	!LO:LB:g=original	!	!	!
=16	=16	=16	=16	=16	=16
1r	.	2.f\	Ki-	4an\	-ley-
.	.	.	.	4f/	-son
.	.	.	.	4g/	e-
.	.	4f\	-ri-	4an\	-ley-
=17	=17	=17	=17	=17	=17
2B-\	e-	2d\	-e	2b-\	-ſon,
!LO:TX:t=P:problem=cała nuta przekreślona przez kreskę taktową [skrótowy zapis]	!	!	!	!	!
[2B-\	-lei-	2g\	e-	2b-\	e-
=18	=18	=18	=18	=18	=18
2B-\]	.	2c/	-lei-	1cc	-ley-
2An\	.	2f\	.	.	.
=19	=19	=19	=19	=19	=19
1B-	-ſon	4B-/	-ſon	4dd\	-ſon
.	.	4d/	e-	4b-\	E-
.	.	4e-\	-lei-	(4cc\	-ley-
.	.	4f\	.	4dd\)	.
=20	=20	=20	=20	=20	=20
2.E-\	Ki-	2g\	-ſon	2ee-\	-ſon
.	.	2r	.	2b-\	.
4E-\	-ri-	.	.	.	.
=21	=21	=21	=21	=21	=21
2D/	-e	2.f\	Ki-	(4b-\	Ki-
.	.	.	.	4a-\)	.
2G\	e-	.	.	(4g\	-ri-
.	.	4f\	-ri-	4b-\)	-e
=22	=22	=22	=22	=22	=22
2C/	-lei-	2e-\	-e	(4ee-\	e-
.	.	.	.	4dd\)	-ley-
2F\	.	2a-\	e-	(4ee-\	.
.	.	.	.	4cc\)	.
=23	=23	=23	=23	=23	=23
4D/	.	4f\	-lei-	(2dd\	.
4BB-/	.	4d\	.	.	.
4C/	.	4e-\	.	2cc\)	.
4D/	.	4f\	.	.	.
=24	=24	=24	=24	=24	=24
4E-\	.	2.g\	.	4b-\	-ſon
4F\	.	.	.	4a-\	e-
4G\	.	.	.	(4b-\	-ley-
4A-\	.	4f\	.	4cc\)	.
!	!	!	!	!LO:LB:g=original	!
=25	=25	=25	=25	=25	=25
2B-\	.	4f\	-ſon	4b-\	-ſon
.	.	4f\	Ki-	4a-\	e-
2E-\	-ſon	4e-\	-ri-	4g\	-ley-
.	.	4f\	-e	4a-\	-son
=26	=26	=26	=26	=26	=26
1D	e-	4d\	lei-	4f/	Ki-
.	.	4e-\	.	4g/	-ri-
.	.	4f\	.	4a-\	-e
.	.	4e-\	-ſon	4g\	e-
=27	=27	=27	=27	=27	=27
!LO:TX:t=P:problem=łuk nad nutą [przyjęto fermatę]	!	!	!	!	!
1BB-;	-lei-	2.e-\	e-	1f	-ley-
.	.	4d\	-lei-	.	.
=28	=28	=28	=28	=28	=28
!LO:N:vis=0	!	!	!	!LO:N:vis=0	!
1E-	-ſon	1e-	-ſon	1g	-son
=29||	=29||	=29||	=29||	=29||	=29||
*M4/4	*	*M4/4	*	*M4/4	*
*met(c)	*	*met(c)	*	*met(c)	*
!	!	!	!	!LO:TX:t=P:problem=oznaczenie metryczne C z kropką	!
!LO:TX:t=P:problem=brak informacji o części Christe	!	!LO:TX:a:B:t=(Chri)ste tacet\nKirie ut supra	!	!LO:TX:b:B:t=Christe Tacet.\nTenor.	!
1ryy	.	1ryy	.	1r	.
=30	=30	=30	=30	=30	=30
1ryy	.	1ryy	.	1r	.
=31	=31	=31	=31	=31	=31
1ryy	.	1ryy	.	1r	.
=32	=32	=32	=32	=32	=32
1ryy	.	1ryy	.	1r	.
=33	=33	=33	=33	=33	=33
1ryy	.	1ryy	.	1r	.
=34	=34	=34	=34	=34	=34
1ryy	.	1ryy	.	1r	.
=35	=35	=35	=35	=35	=35
1ryy	.	1ryy	.	1r	.
=36	=36	=36	=36	=36	=36
1ryy	.	1ryy	.	1r	.
=37	=37	=37	=37	=37	=37
1ryy	.	1ryy	.	1r	.
=38	=38	=38	=38	=38	=38
1ryy	.	1ryy	.	1r	.
=39	=39	=39	=39	=39	=39
1ryy	.	1ryy	.	1r	.
=40	=40	=40	=40	=40	=40
1ryy	.	1ryy	.	1r	.
=41	=41	=41	=41	=41	=41
1ryy	.	1ryy	.	1r	.
=42	=42	=42	=42	=42	=42
!	!	!	!	!LO:TX:a:t=Kirie da Capo [segno]	!
1ryy	.	1ryy	.	1r	.
=:|!	=:|!	=:|!	=:|!	=:|!	=:|!
*-	*-	*-	*-	*-	*-
!!!system-decoration: [(s1,s2,s3)]
!!!ENC: Andrzej Kubiczek
!!!END: 2020-12-27
!!!ENC: Urszula Świątek
!!!END: 2022-03-29
